!!!OTL: TRAURIG SEHEN WIR UNS AN
!!!ARE: Europa, Mitteleuropa, Deutschland
!!!SCT: B0315
!!!YEM: Copyright 1995, estate of Helmut Schaffrath.
**kern
*ICvox
*Ivox
*M3/4
*k[f#]
*G:
=1
{8g
8d
4g
4b
=2
16a
16g
16f#
16g
4.a
8r}
=3
{8b
8cc
4dd
4ee
=4
8dd
8cc
4b
4r}
=5
{8dd
8a
4.a
8b
=6
16dd
16cc
16cc
16b
4b
4a}
=7
{8dd
8a
4.a
8b
=8
16dd
16cc
16cc
16b
4b
4a}
=9
{8.b
16a
4g
8a
8g
=10
8g
8f#
4g
4r}
==
!!!AGN: Geselligkeits - Lied, Freundschaft, Abschied
!!!ONB: ESAC (Essen Associative Code) Database: BOEHME
!!!AMT: simple triple
!!!AIN: vox
!!!EED: Helmut Schaffrath
!!!EEV: 1.0
*-
